!!!COM: Distler, Hugo
!!!CDT: 1908-1942
!!!OPR@@DE: Der Jahrkreis
!!!OPR@EN: The Year Cycle
!!!OTL@@DE: Lobt Gott, ihr Christen, allzugleich
!!!OTL@EN: ...
!!!OPS: 5
!!!ONM: 1
**kern	**text	**kern	**text	**kern	**text
*part3	*part3	*part2	*part2	*part1	*part1
*staff3	*staff3	*staff2	*staff2	*staff1	*staff1
*Ialto	*	*Isoprn	*	*Isoprn	*
*clefG2	*	*clefG2	*	*clefG2	*
*k[f#]	*	*k[f#]	*	*k[f#]	*
*MM120	*	*MM120	*	*MM120	*
*M2/4	*	*M2/4	*	*M2/4	*
=1	=1	=1	=1	=	=
2r	.	4r	.	4g	Lobt
=-	=	=-	=	=1	=1
.	.	4d	Lobt	4dd,	Gott,
=2	=2	=2	=2	=-	=
2r	.	4g,	Gott,	4g	lobt
=-	=	=-	=	=2	=
.	.	4d	lobt	4dd,	Gott,
=3	=3	=3	=3	=-	=
2r	.	4g,	Gott,	4g	lobt
=	=	=-	=	=3	=
*	*	*	*	*M4/4	*
.	.	4d	lobt	4dd	Gott,
=4	=4	=4	=4	=-	=
*M4/4	*	*M4/4	*	*	*
2r	.	4g	Gott,	4dd	ihr
.	.	4g	ihr	4dd	Chri-
2G	Lobt	4g	Chri-	4dd	sten
=	=	=-	=	=4	=
*	*	*	*	*M3/4	*
.	.	4g	sten	([4ee	all-
=5	=5	=5	=5	=-	=
4d	Gott,	(4a	all-	8eeL]	.
.	.	.	.	8dd	.
4d	ihr	2g)	.	8b	.
.	.	.	.	8ccJ	.
=-	=	=-	=	=5	=
*	*	*	*	*M2/4	*
4d	Chri-	.	.	4.dd)	.
4d	sten	4fn	zu-	.	.
.	.	.	.	8cc	zu-
=6	=6	=6	=6	=6	=6
*M6/4	*	*M6/4	*	*M6/4	*
4e	all-	2g,	gleich,	2b,	gleich,
(8dL	zu-	.	.	.	.
8cJ)	.	.	.	.	.
4B,	gleich,	4g	in	2dd	in
4B	in	4g	sei-	.	.
4c	sei-	4e	nem	4ee	sei-
4d	nem	([4a	hoech-	4dd	nem
=7	=7	=7	=7	=7	=7
(4.e	hoech-	4a]	.	(8bL	hoech-
.	.	.	.	8ccJ	.
.	.	4.b	.	4.dd,	.
8dL	.	.	.	.	.
8e	.	.	.	.	.
8f#J	.	8a	.	8ccL	.
4.g	.	2g)	.	8b	.
.	.	.	.	8ccJ	.
.	.	.	.	4dd)	.
8f#)	.	.	.	.	.
4e	sten	4g	sten	(8ccL	sten
.	.	.	.	8bJ)	.
=8	=8	=8	=8	=8	=8
*M3/4	*	*M3/4	*	*M3/4	*
2.d	Thron,	4f#,	Thron,	4a,	Thron,
.	.	4f#	der	4dd	der
.	.	4a	heut	[4dd	heut_
=9	=9	=9	=9	=9	=9
*M4/4	*	*M4/4	*	*M4/4	*
1r	.	4b	schleusst	4dd]	.
.	.	(4a	auf	4dd	schleusst
.	.	4.f#)	.	4dd	auf
.	.	.	.	4b	sein
.	.	8g	sein	.	.
=10	=10	=10	=10	=10	=10
*M6/4	*	*M6/4	*	*M6/4	*
2r	.	(4a	Him-	(4.dd	Him-
.	.	4.f#	.	.	.
.	.	.	.	8eeL	.
4r	.	.	.	8dd	.
.	.	8g	.	8b	.
4d	der	4a	.	8ccJ	.
.	.	.	.	4dd	.
4d	heut	8gL	.	.	.
.	.	8f#J)	.	8cc)	.
4d	schleusst	4g	mel-	4b	mel-
=11	=11	=11	=11	=11	=11
*M4/4	*	*M4/4	*	*M4/4	*
4d	auf	2.f#	reich	2.a	reich
4e	sein	.	.	.	.
4d	Him-	.	.	.	.
(8cL	mel-	4r	.	4r	.
8BJ)	.	.	.	.	.
=12	=12	=12	=12	=12	=12
[1A	reich_	2r	.	4r	.
.	.	.	.	4dd	und
.	.	4g	und	4b	schenkt
.	.	4e	schenkt	4a,	uns,
=13	=13	=13	=13	=13	=13
1A_	.	4d,	uns,	4dd	und
.	.	4g	und	4b	schenkt
.	.	4e	schenkt	4a,	uns,
.	.	4d,	uns,	4dd	und
=14	=14	=14	=14	=14	=14
2A]	.	4g	und	4b	schenkt
.	.	4e	schenkt	(8aL	uns
.	.	.	.	8gJ)	.
2r	.	4d	uns	4a	sei-
.	.	([4e	sei-	4a	nem
=15	=15	=15	=15	=15	=15
1r	.	8eL]	.	(8gL	Sohn,_
.	.	8d	.	8f#	.
.	.	8e	.	8g	.
.	.	8f#J	.	8a	.
.	.	4g)	.	8b	.
.	.	.	.	8a	.
.	.	4e	nen	8b	.
.	.	.	.	8ccJ	.
=16	=16	=16	=16	=16	=16
*M6/4	*	*M6/4	*	*M6/4	*
2d	und	4a,	Sohn,	4dd),	.
.	.	4f#	und	4b	und
4B	schenkt	4b	schenkt	4dd	schenkt
4G	uns	(8aL	uns	(8ccL	uns
.	.	8gJ)	.	8bJ)	.
4d	sei-	4g	sei-	4a	sei-
4d	nen	4f#	nen	4a	nen
=17	=17	=17	=17	=17	=17
*M2/4	*	*M2/4	*	*M2/4	*
[2G	Sohn._	4g,	Sohn,	4g,	Sohn,
.	.	8g	sei-	8b	sei-
.	.	8g	nen	8b	nen
=18	=18	=18	=18	=18	=18
2G_	.	4a,	Sohn,	4dd,	Sohn,
.	.	8g	sei-	8b	sei-
.	.	8g	nen	8b	nen
=19	=19	=19	=19	=19	=19
*M6/4	*	*M6/4	*	*M6/4	*
1.G_	.	4a,	Sohn,	4dd,	Sohn,
.	.	(4.g	sei-	(4.b	sei-
.	.	4a,	.	4dd,	.
.	.	8gL	.	8bL	.
.	.	8a	.	8dd	.
.	.	8b	.	8ee	.
.	.	8cc	.	8gg	.
.	.	[8bJ	.	8ddJ	.
=20	=20	=20	=20	=20	=20
1.G]	.	8bL]	.	4.ee	.
.	.	8aJ	.	.	.
.	.	4g)	.	.	.
.	.	.	.	4dd)	.
.	.	4a	nen	.	.
.	.	.	.	8cc	nen
.	.	2.b	Sohn.	2.dd	Sohn.
==	==	==	==	==	==
*-	*-	*-	*-	*-	*-
!!!YOR: Bärenreiter-Ausgabe 676
!!!YOY: 1933
!!!EFL: 10/52
!!!URL-scan: https://imslp.eu/files/imglnks/euimg/7/7d/IMSLP834545-PMLP518834-5-jahrkreis-EA--original-paper-600dpi.pdf#page=20
!!!URL-imslp:https://imslp.org/wiki/Der_Jahrkreis,_Op.5_(Distler,_Hugo)#IMSLP834545
!!!system-decoration: [(s1,s2,s3)]
!!!ENC: Lucas Hofmann
!!!END: 2023/11/10
